!!!OTL: Taiyang zhaozai chaqishan
!!!ARE: Asia, China,ÿSichuan Nanjiang
!! II, 205
!!!SCT: C1875
!!!YEM: Copyright 1995, estate of Helmut Schaffrath.
**kern
*ICvox
*Ivox
*M4/4
*k[f#c#g#d#a#]
*B:
{16gg#
16gg#
16gg#
16gg#
2.ddd#}
=1
{16ccc#
16ccc#
16.fff#
32ccc#
[4ddd#
8.ddd#]
16bb
4ccc#}
=2
{8ddd#
16ddd#
16bb
4ccc#
8ccc#
16ccc#
16bb
4gg#}
=3
{4gg#
2.ddd#
=4
16ccc#
16ddd#
16fff#
16ccc#
[4ddd#
8.ddd#]
16bb
4ccc#}
=5
{12gg#
12ccc#
12bb
2.ccc#
=6
8fff#
16ddd#
16fff#
2.ggg#}
=7
{4gg#
2.ddd#
=8
16fff#
16ddd#
16ddd#
16ccc#
4.ddd#
16ccc#
16bb
4ccc#}
=9
{16ccc#
16ddd#
16ccc#
16bb
2.gg#}
=10
{8bb
16ccc#
16ddd#
4ccc#
8ccc#
8ccc#
8bb
16bb
16ccc#
=11
2ddd#
16ddd#
16bb
4ccc#
8bb
=12
1gg#}
==
!!!AGN: Shange
!!!AMT: simple quadruple
!!!AIN: vox
!!!EED: Helmut Schaffrath
!!!EEV: 1.0
*-
